X:1
T:Title
%%score 1 { ( 2 3 6 ) | ( 4 5 7 ) }
L:1/8
M:4/4
K:C
V:1 treble nm="Akkordion"
V:2 bass nm="Grand Piano"
V:3 bass 
V:6 bass 
V:4 bass 
V:5 bass 
V:7 bass 
V:1
 z4[Q:1/4=82] z2 z C | E2 FD C3 C | AABc G3 G | G2 FE E2 FF | _B2 AG G2 A2 | d2 cB cEGF | E3 D C4 | %7
[M:3/4] z6 |] %8
V:2
 z4 z CG,C | E2[K:treble] F[B,D][K:bass] [E,G,C]E[K:treble]GC | A2 z2 z4 | [^CEG]2 FE .[CE]2 z2 | %4
 _B2 z2 z4 | [df]2 [ce][FBd] [Ec]C-[A,CG]F | z C z D z EGc |[M:3/4] c6 |] %8
V:3
 z4 C,4 | x2[K:treble] x2[K:bass] x2[K:treble] x2 | z2 Bc .[B,DF]2 z D | x8 | DG[CFA]G GCFA | %5
 G4 z E z2 | E4 z4 |[M:3/4] x6 |] %8
V:4
 z4 z E,2 E, | [C,G,]2- [C,-D,G,-][C,F,G,] z C _B,2 | %2
 .[F,A,C]2 [G,B,][A,CF] z[K:treble] FC[K:bass][_B,,,_B,,] | z2 D^C z A,[K:treble]DF | %4
 z D z [_B,E] [B,E]2 A,2 | z8 | .G,2 z2 z4 |[M:3/4] [C,E,G,]6 |] %8
V:5
 z4 C,,4 | C4 C,4 | C,4 B,,4[K:treble][K:bass] | [A,,,A,,]4 [D,,D,]2[K:treble] z2 | G,,2 C,2 F,4 | %5
 z4 A,,2 z D- | D z z2 z4 |[M:3/4] x6 |] %8
V:6
 x8 | x2[K:treble] x2[K:bass] x2[K:treble] x2 | z .F3 z2 E2 | x8 | x8 | x8 | z2 B,2 C2 z2 | %7
[M:3/4] x6 |] %8
V:7
 x8 | x8 | x5[K:treble] x2[K:bass] x | x6[K:treble] x2 | x8 | [B,,B,]2 C,^G,, z E,, .F,,2 | %6
 G,,-[G,,-C,][G,,-G,][G,,F,] [C,E,]2 [C,E,G,]2 |[M:3/4] x6 |] %8

